content/en/docs/concepts/traffic-management/virtual-services-3.svg

<svg xmlns="http://www.w3.org/2000/svg" viewBox="0 0 504 262.65"><defs><style>.a1704f99-7e08-4036-a34c-8c8e6892479b{fill:#fff}.ae88a2fc-4cd3-4037-90d9-440ddb52ffd2{font-size:14px}.ae88a2fc-4cd3-4037-90d9-440ddb52ffd2,.e8db1857-2529-4ad8-934c-dc6374164a7f{font-family:GoogleSans-Regular,Google Sans}.f1df9d1d-d467-47e8-a911-d5ae6a1e08c9{letter-spacing:-.01em}.acb17813-62e9-4e21-a11c-80f1d52fb545{letter-spacing:0}.b23a2369-83aa-4e0a-927e-486487188ad7,.b4b5c9de-9baa-4b1e-8753-3c413c6f8cad,.b86808bd-1b40-4d71-a6fa-e4f38204f6c6,.badbbd8a-5869-4aa5-b30c-07c50a7eabb8,.f88662de-4890-43d8-8e84-b742977372e7,.fc13b10c-4ca8-4433-8935-ef07f914462f{fill:none}.b23a2369-83aa-4e0a-927e-486487188ad7,.b4b5c9de-9baa-4b1e-8753-3c413c6f8cad,.b86808bd-1b40-4d71-a6fa-e4f38204f6c6,.badbbd8a-5869-4aa5-b30c-07c50a7eabb8,.fc13b10c-4ca8-4433-8935-ef07f914462f{stroke-linejoin:round}.e8db1857-2529-4ad8-934c-dc6374164a7f{font-size:16px}.fb852b11-e59f-491a-8a5f-f6d3a4f9056f{letter-spacing:0}.f0a5a90d-e06b-4af2-85bb-7f92c7b87dd3{letter-spacing:-.01em}.f064cb72-4ba8-4d9e-a758-fa976957de67{letter-spacing:.01em}.b86808bd-1b40-4d71-a6fa-e4f38204f6c6,.badbbd8a-5869-4aa5-b30c-07c50a7eabb8,.fc13b10c-4ca8-4433-8935-ef07f914462f{stroke:#486baf;stroke-width:4px}.b86808bd-1b40-4d71-a6fa-e4f38204f6c6,.badbbd8a-5869-4aa5-b30c-07c50a7eabb8,.f88662de-4890-43d8-8e84-b742977372e7,.fc13b10c-4ca8-4433-8935-ef07f914462f{stroke-linecap:round}.fc13b10c-4ca8-4433-8935-ef07f914462f{stroke-dasharray:6 12}.a3b684e4-dac7-438a-8179-bd7e8989dac5{letter-spacing:-.02em}.b23a2369-83aa-4e0a-927e-486487188ad7{stroke:#e905ee;stroke-width:3px}.bbf0ceb9-fa6f-47f6-ab5d-6895211d220f{letter-spacing:-.02em}.f4a5240f-8f93-48aa-b8ee-453e63c7f5e9{fill:#757575}.b4b5c9de-9baa-4b1e-8753-3c413c6f8cad,.f88662de-4890-43d8-8e84-b742977372e7{stroke:#fff;stroke-width:2px}.f88662de-4890-43d8-8e84-b742977372e7{stroke-miterlimit:10}.b86808bd-1b40-4d71-a6fa-e4f38204f6c6{stroke-dasharray:5.36 10.71}</style></defs><g id="af4edb44-28ba-4de3-8ab5-98aa954112dd" data-name="Service-relationships"><rect x="43.11" y="44.82" width="123.25" height="75.44" rx="3" fill="#e5e5e4"/><rect class="a1704f99-7e08-4036-a34c-8c8e6892479b" x="51.92" y="88.25" width="105.64" height="26.41" rx="3"/><text class="ae88a2fc-4cd3-4037-90d9-440ddb52ffd2" transform="translate(75.04 105.6)"><tspan letter-spacing=".01em">v</tspan><tspan x="7.28" y="0" letter-spacing="0">t</tspan><tspan x="12.47" y="0">l-s</tspan><tspan class="f1df9d1d-d467-47e8-a911-d5ae6a1e08c9" x="28.22" y="0">v</tspan><tspan class="acb17813-62e9-4e21-a11c-80f1d52fb545" x="35.21" y="0">c-C</tspan></text><path id="ace23c5e-6bf6-420b-b388-b163717957b6" data-name="background" fill="#486baf" d="M90.52 44.82h28.44v28.44H90.52z"/><path id="a0880e72-8c95-4496-b236-f55310d0aa71" data-name="hull" class="a1704f99-7e08-4036-a34c-8c8e6892479b" d="M96.14 68.71h17.2l-10.75 3.23-6.45-3.23z"/><path id="a3508c84-00ab-4050-b013-a1d9a7ee9272" data-name="mainsail" class="a1704f99-7e08-4036-a34c-8c8e6892479b" d="M96.14 67.64l6.45-1.08V54.73l-6.45 12.91z"/><path id="bf9e913f-4b5a-41d9-8cb9-74827caf0902" data-name="headsail" class="a1704f99-7e08-4036-a34c-8c8e6892479b" d="M103.66 66.56l9.68 1.08-9.68-21.5v20.42z"/><rect x=".5" y="21.64" width="503" height="240.51" rx="10" stroke-linejoin="round" stroke="#466bb0" stroke-dasharray="10.07 10.07" fill="none"/><text class="e8db1857-2529-4ad8-934c-dc6374164a7f" transform="translate(.9 13.73)">I<tspan class="fb852b11-e59f-491a-8a5f-f6d3a4f9056f" x="3.9" y="0">s</tspan><tspan x="11.39" y="0" letter-spacing="0">t</tspan><tspan class="f0a5a90d-e06b-4af2-85bb-7f92c7b87dd3" x="17.33" y="0">i</tspan><tspan x="20.86" y="0">o M</tspan><tspan class="f064cb72-4ba8-4d9e-a758-fa976957de67" x="47.97" y="0">e</tspan><tspan x="57.06" y="0">sh</tspan></text><path class="badbbd8a-5869-4aa5-b30c-07c50a7eabb8" d="M34 210.65h3"/><path class="fc13b10c-4ca8-4433-8935-ef07f914462f" d="M49 210.65h120"/><path class="badbbd8a-5869-4aa5-b30c-07c50a7eabb8" d="M175 210.65h3"/><text class="e8db1857-2529-4ad8-934c-dc6374164a7f" transform="translate(10.83 237.65)"><tspan class="a3b684e4-dac7-438a-8179-bd7e8989dac5">C</tspan><tspan x="11.54" y="0" letter-spacing="-.01em">on</tspan><tspan class="f0a5a90d-e06b-4af2-85bb-7f92c7b87dd3" x="29.73" y="0">fig</tspan><tspan x="48.62" y="0" letter-spacing="0">u</tspan><tspan x="57.6" y="0" letter-spacing="-.02em">r</tspan><tspan x="63.28" y="0">a</tspan><tspan class="f0a5a90d-e06b-4af2-85bb-7f92c7b87dd3" x="71.78" y="0">bl</tspan><tspan x="84.62" y="0">e t</tspan><tspan class="a3b684e4-dac7-438a-8179-bd7e8989dac5" x="103.2" y="0">r</tspan><tspan x="108.88" y="0" letter-spacing="-.01em">aff</tspan><tspan class="fb852b11-e59f-491a-8a5f-f6d3a4f9056f" x="117.22" y="0">i</tspan><tspan x="131.7" y="0">c </tspan><tspan x="144.14" y="0" letter-spacing="-.03em">r</tspan><tspan class="fb852b11-e59f-491a-8a5f-f6d3a4f9056f" x="149.66" y="0">o</tspan><tspan class="f064cb72-4ba8-4d9e-a758-fa976957de67" x="159.12" y="0">u</tspan><tspan x="168.18" y="0" letter-spacing="-.02em">t</tspan><tspan class="f064cb72-4ba8-4d9e-a758-fa976957de67" x="173.68" y="0">e</tspan><tspan x="182.77" y="0">s</tspan></text><rect x="277.25" y="46.86" width="197.65" height="198.14" rx="3" fill="#e6e6e6"/><rect class="a1704f99-7e08-4036-a34c-8c8e6892479b" x="285.9" y="55.86" width="54" height="54" rx="3"/><path class="b23a2369-83aa-4e0a-927e-486487188ad7" d="M326.16 90.51v-15.3l-13.26-7.65-13.26 7.65v15.3l13.26 7.65 13.26-7.65z"/><rect class="a1704f99-7e08-4036-a34c-8c8e6892479b" x="348.9" y="55.86" width="117" height="54" rx="3"/><text class="ae88a2fc-4cd3-4037-90d9-440ddb52ffd2" transform="translate(402.34 87.7)">s<tspan class="f1df9d1d-d467-47e8-a911-d5ae6a1e08c9" x="6.62" y="0">v</tspan><tspan class="acb17813-62e9-4e21-a11c-80f1d52fb545" x="13.61" y="0">c</tspan><tspan class="bbf0ceb9-fa6f-47f6-ab5d-6895211d220f" x="21.25" y="0">-</tspan><tspan x="27.15" y="0">W v1</tspan></text><circle class="f4a5240f-8f93-48aa-b8ee-453e63c7f5e9" cx="375.9" cy="82.86" r="18"/><path class="b4b5c9de-9baa-4b1e-8753-3c413c6f8cad" d="M369.51 76.34h12.79v12.79h-12.79z"/><path class="f88662de-4890-43d8-8e84-b742977372e7" d="M371.87 76.34v-3.07m4.03 3.07v-3.07m4.03 3.07v-3.07m-8.06 19.18v-3.08m4.03 3.08v-3.08m4.03 3.08v-3.08m-10.54-2.49h-3.08m3.08-4.02h-3.08m3.08-4.03h-3.08m19.18 8.05h-3.08m3.08-4.02h-3.08m3.08-4.03h-3.08"/><rect class="a1704f99-7e08-4036-a34c-8c8e6892479b" x="373.06" y="79.9" width="5.68" height="5.68" rx="2"/><rect class="a1704f99-7e08-4036-a34c-8c8e6892479b" x="285.9" y="118.86" width="54" height="54" rx="3"/><path class="b23a2369-83aa-4e0a-927e-486487188ad7" d="M326.16 153.51v-15.3l-13.26-7.65-13.26 7.65v15.3l13.26 7.65 13.26-7.65z"/><rect class="a1704f99-7e08-4036-a34c-8c8e6892479b" x="348.9" y="118.86" width="117" height="54" rx="3"/><text class="ae88a2fc-4cd3-4037-90d9-440ddb52ffd2" transform="translate(401.32 150.7)">s<tspan class="f1df9d1d-d467-47e8-a911-d5ae6a1e08c9" x="6.62" y="0">v</tspan><tspan class="acb17813-62e9-4e21-a11c-80f1d52fb545" x="13.61" y="0">c</tspan><tspan class="bbf0ceb9-fa6f-47f6-ab5d-6895211d220f" x="21.25" y="0">-</tspan><tspan x="27.15" y="0">W v2</tspan></text><circle class="f4a5240f-8f93-48aa-b8ee-453e63c7f5e9" cx="375.9" cy="145.86" r="18"/><path class="b4b5c9de-9baa-4b1e-8753-3c413c6f8cad" d="M369.51 139.34h12.79v12.79h-12.79z"/><path class="f88662de-4890-43d8-8e84-b742977372e7" d="M371.87 139.34v-3.07m4.03 3.07v-3.07m4.03 3.07v-3.07m-8.06 19.18v-3.08m4.03 3.08v-3.08m4.03 3.08v-3.08m-10.54-2.49h-3.08m3.08-4.02h-3.08m3.08-4.03h-3.08m19.18 8.05h-3.08m3.08-4.02h-3.08m3.08-4.03h-3.08"/><rect class="a1704f99-7e08-4036-a34c-8c8e6892479b" x="373.06" y="142.9" width="5.68" height="5.68" rx="2"/><rect class="a1704f99-7e08-4036-a34c-8c8e6892479b" x="285.9" y="181.86" width="54" height="54" rx="3"/><path class="b23a2369-83aa-4e0a-927e-486487188ad7" d="M326.16 216.51v-15.3l-13.26-7.65-13.26 7.65v15.3l13.26 7.65 13.26-7.65z"/><rect class="a1704f99-7e08-4036-a34c-8c8e6892479b" x="348.9" y="181.86" width="117" height="54" rx="3"/><text class="ae88a2fc-4cd3-4037-90d9-440ddb52ffd2" transform="translate(401.25 213.7)">s<tspan class="f1df9d1d-d467-47e8-a911-d5ae6a1e08c9" x="6.62" y="0">v</tspan><tspan class="acb17813-62e9-4e21-a11c-80f1d52fb545" x="13.61" y="0">c</tspan><tspan class="bbf0ceb9-fa6f-47f6-ab5d-6895211d220f" x="21.25" y="0">-</tspan><tspan x="27.15" y="0">W v3</tspan></text><circle class="f4a5240f-8f93-48aa-b8ee-453e63c7f5e9" cx="375.9" cy="208.86" r="18"/><path class="b4b5c9de-9baa-4b1e-8753-3c413c6f8cad" d="M369.51 202.34h12.79v12.79h-12.79z"/><path class="f88662de-4890-43d8-8e84-b742977372e7" d="M371.87 202.34v-3.07m4.03 3.07v-3.07m4.03 3.07v-3.07m-8.06 19.18v-3.08m4.03 3.08v-3.08m4.03 3.08v-3.08m-10.54-2.49h-3.08m3.08-4.02h-3.08m3.08-4.03h-3.08m19.18 8.05h-3.08m3.08-4.02h-3.08m3.08-4.03h-3.08"/><rect class="a1704f99-7e08-4036-a34c-8c8e6892479b" x="373.06" y="205.9" width="5.68" height="5.68" rx="2"/><path class="badbbd8a-5869-4aa5-b30c-07c50a7eabb8" d="M31 83h3"/><path stroke-dasharray="6.07 12.14" stroke-linecap="round" stroke="#486baf" stroke-width="4" stroke-linejoin="round" fill="none" d="M46.14 83h230.69"/><path class="badbbd8a-5869-4aa5-b30c-07c50a7eabb8" d="M282.9 83h3m-81 63h3"/><path class="b86808bd-1b40-4d71-a6fa-e4f38204f6c6" d="M218.61 146h58.93"/><path class="badbbd8a-5869-4aa5-b30c-07c50a7eabb8" d="M282.9 146h3m0 63h-3"/><path class="b86808bd-1b40-4d71-a6fa-e4f38204f6c6" d="M272.19 209h-58.93"/><path class="badbbd8a-5869-4aa5-b30c-07c50a7eabb8" d="M207.9 209h-3v-3"/><path class="fc13b10c-4ca8-4433-8935-ef07f914462f" d="M204.9 194V92"/><path class="badbbd8a-5869-4aa5-b30c-07c50a7eabb8" d="M204.9 86v-3"/></g></svg>

<svg xmlns="http://www.w3.org/2000/svg" viewBox="0 0 504 262.65"><defs><style>.a1704f99-7e08-4036-a34c-8c8e6892479b{fill:#fff}.ae88a2fc-4cd3-4037-90d9-440ddb52ffd2{font-size:14px}.ae88a2fc-4cd3-4037-90d9-440ddb52ffd2,.e8db1857-2529-4ad8-934c-dc6374164a7f{font-family:GoogleSans-Regular,Google Sans}.f1df9d1d-d467-47e8-a911-d5ae6a1e08c9{letter-spacing:-.01em}.acb17813-62e9-4e21-a11c-80f1d52fb545{letter-spacing:0}.b23a2369-83aa-4e0a-927e-486487188ad7,.b4b5c9de-9baa-4b1e-8753-3c413c6f8cad,.b86808bd-1b40-4d71-a6fa-e4f38204f6c6,.badbbd8a-5869-4aa5-b30c-07c50a7eabb8,.f88662de-4890-43d8-8e84-b742977372e7,.fc13b10c-4ca8-4433-8935-ef07f914462f{fill:none}.b23a2369-83aa-4e0a-927e-486487188ad7,.b4b5c9de-9baa-4b1e-8753-3c413c6f8cad,.b86808bd-1b40-4d71-a6fa-e4f38204f6c6,.badbbd8a-5869-4aa5-b30c-07c50a7eabb8,.fc13b10c-4ca8-4433-8935-ef07f914462f{stroke-linejoin:round}.e8db1857-2529-4ad8-934c-dc6374164a7f{font-size:16px}.fb852b11-e59f-491a-8a5f-f6d3a4f9056f{letter-spacing:0}.f0a5a90d-e06b-4af2-85bb-7f92c7b87dd3{letter-spacing:-.01em}.f064cb72-4ba8-4d9e-a758-fa976957de67{letter-spacing:.01em}.b86808bd-1b40-4d71-a6fa-e4f38204f6c6,.badbbd8a-5869-4aa5-b30c-07c50a7eabb8,.fc13b10c-4ca8-4433-8935-ef07f914462f{stroke:#486baf;stroke-width:4px}.b86808bd-1b40-4d71-a6fa-e4f38204f6c6,.badbbd8a-5869-4aa5-b30c-07c50a7eabb8,.f88662de-4890-43d8-8e84-b742977372e7,.fc13b10c-4ca8-4433-8935-ef07f914462f{stroke-linecap:round}.fc13b10c-4ca8-4433-8935-ef07f914462f{stroke-dasharray:6 12}.a3b684e4-dac7-438a-8179-bd7e8989dac5{letter-spacing:-.02em}.b23a2369-83aa-4e0a-927e-486487188ad7{stroke:#e905ee;stroke-width:3px}.bbf0ceb9-fa6f-47f6-ab5d-6895211d220f{letter-spacing:-.02em}.f4a5240f-8f93-48aa-b8ee-453e63c7f5e9{fill:#757575}.b4b5c9de-9baa-4b1e-8753-3c413c6f8cad,.f88662de-4890-43d8-8e84-b742977372e7{stroke:#fff;stroke-width:2px}.f88662de-4890-43d8-8e84-b742977372e7{stroke-miterlimit:10}.b86808bd-1b40-4d71-a6fa-e4f38204f6c6{stroke-dasharray:5.36 10.71}</style></defs><g id="af4edb44-28ba-4de3-8ab5-98aa954112dd" data-name="Service-relationships"><rect x="43.11" y="44.82" width="123.25" height="75.44" rx="3" fill="#e5e5e4"/><rect class="a1704f99-7e08-4036-a34c-8c8e6892479b" x="51.92" y="88.25" width="105.64" height="26.41" rx="3"/><text class="ae88a2fc-4cd3-4037-90d9-440ddb52ffd2" transform="translate(75.04 105.6)"><tspan letter-spacing=".01em">v</tspan><tspan x="7.28" y="0" letter-spacing="0">t</tspan><tspan x="12.47" y="0">l-s</tspan><tspan class="f1df9d1d-d467-47e8-a911-d5ae6a1e08c9" x="28.22" y="0">v</tspan><tspan class="acb17813-62e9-4e21-a11c-80f1d52fb545" x="35.21" y="0">c-C</tspan></text><path id="ace23c5e-6bf6-420b-b388-b163717957b6" data-name="background" fill="#486baf" d="M90.52 44.82h28.44v28.44H90.52z"/><path id="a0880e72-8c95-4496-b236-f55310d0aa71" data-name="hull" class="a1704f99-7e08-4036-a34c-8c8e6892479b" d="M96.14 68.71h17.2l-10.75 3.23-6.45-3.23z"/><path id="a3508c84-00ab-4050-b013-a1d9a7ee9272" data-name="mainsail" class="a1704f99-7e08-4036-a34c-8c8e6892479b" d="M96.14 67.64l6.45-1.08V54.73l-6.45 12.91z"/><path id="bf9e913f-4b5a-41d9-8cb9-74827caf0902" data-name="headsail" class="a1704f99-7e08-4036-a34c-8c8e6892479b" d="M103.66 66.56l9.68 1.08-9.68-21.5v20.42z"/><rect x=".5" y="21.64" width="503" height="240.51" rx="10" stroke-linejoin="round" stroke="#466bb0" stroke-dasharray="10.07 10.07" fill="none"/><text class="e8db1857-2529-4ad8-934c-dc6374164a7f" transform="translate(.9 13.73)">I<tspan class="fb852b11-e59f-491a-8a5f-f6d3a4f9056f" x="3.9" y="0">s</tspan><tspan x="11.39" y="0" letter-spacing="0">t</tspan><tspan class="f0a5a90d-e06b-4af2-85bb-7f92c7b87dd3" x="17.33" y="0">i</tspan><tspan x="20.86" y="0">o M</tspan><tspan class="f064cb72-4ba8-4d9e-a758-fa976957de67" x="47.97" y="0">e</tspan><tspan x="57.06" y="0">sh</tspan></text><path class="badbbd8a-5869-4aa5-b30c-07c50a7eabb8" d="M34 210.65h3"/><path class="fc13b10c-4ca8-4433-8935-ef07f914462f" d="M49 210.65h120"/><path class="badbbd8a-5869-4aa5-b30c-07c50a7eabb8" d="M175 210.65h3"/><text class="e8db1857-2529-4ad8-934c-dc6374164a7f" transform="translate(10.83 237.65)"><tspan class="a3b684e4-dac7-438a-8179-bd7e8989dac5">C</tspan><tspan x="11.54" y="0" letter-spacing="-.01em">on</tspan><tspan class="f0a5a90d-e06b-4af2-85bb-7f92c7b87dd3" x="29.73" y="0">fig</tspan><tspan x="48.62" y="0" letter-spacing="0">u</tspan><tspan x="57.6" y="0" letter-spacing="-.02em">r</tspan><tspan x="63.28" y="0">a</tspan><tspan class="f0a5a90d-e06b-4af2-85bb-7f92c7b87dd3" x="71.78" y="0">bl</tspan><tspan x="84.62" y="0">e t</tspan><tspan class="a3b684e4-dac7-438a-8179-bd7e8989dac5" x="103.2" y="0">r</tspan><tspan x="108.88" y="0" letter-spacing="-.01em">aff</tspan><tspan class="fb852b11-e59f-491a-8a5f-f6d3a4f9056f" x="117.22" y="0">i</tspan><tspan x="131.7" y="0">c </tspan><tspan x="144.14" y="0" letter-spacing="-.03em">r</tspan><tspan class="fb852b11-e59f-491a-8a5f-f6d3a4f9056f" x="149.66" y="0">o</tspan><tspan class="f064cb72-4ba8-4d9e-a758-fa976957de67" x="159.12" y="0">u</tspan><tspan x="168.18" y="0" letter-spacing="-.02em">t</tspan><tspan class="f064cb72-4ba8-4d9e-a758-fa976957de67" x="173.68" y="0">e</tspan><tspan x="182.77" y="0">s</tspan></text><rect x="277.25" y="46.86" width="197.65" height="198.14" rx="3" fill="#e6e6e6"/><rect class="a1704f99-7e08-4036-a34c-8c8e6892479b" x="285.9" y="55.86" width="54" height="54" rx="3"/><path class="b23a2369-83aa-4e0a-927e-486487188ad7" d="M326.16 90.51v-15.3l-13.26-7.65-13.26 7.65v15.3l13.26 7.65 13.26-7.65z"/><rect class="a1704f99-7e08-4036-a34c-8c8e6892479b" x="348.9" y="55.86" width="117" height="54" rx="3"/><text class="ae88a2fc-4cd3-4037-90d9-440ddb52ffd2" transform="translate(402.34 87.7)">s<tspan class="f1df9d1d-d467-47e8-a911-d5ae6a1e08c9" x="6.62" y="0">v</tspan><tspan class="acb17813-62e9-4e21-a11c-80f1d52fb545" x="13.61" y="0">c</tspan><tspan class="bbf0ceb9-fa6f-47f6-ab5d-6895211d220f" x="21.25" y="0">-</tspan><tspan x="27.15" y="0">W v1</tspan></text><circle class="f4a5240f-8f93-48aa-b8ee-453e63c7f5e9" cx="375.9" cy="82.86" r="18"/><path class="b4b5c9de-9baa-4b1e-8753-3c413c6f8cad" d="M369.51 76.34h12.79v12.79h-12.79z"/><path class="f88662de-4890-43d8-8e84-b742977372e7" d="M371.87 76.34v-3.07M375.9 76.34v-3.07M379.93 76.34v-3.07M371.87 92.45v-3.08M375.9 92.45v-3.08M379.93 92.45v-3.08M369.39 86.88h-3.08M369.39 82.86h-3.08M369.39 78.83h-3.08M385.49 86.88h-3.08M385.49 82.86h-3.08M385.49 78.83h-3.08"/><rect class="a1704f99-7e08-4036-a34c-8c8e6892479b" x="373.06" y="79.9" width="5.68" height="5.68" rx="2"/><rect class="a1704f99-7e08-4036-a34c-8c8e6892479b" x="285.9" y="118.86" width="54" height="54" rx="3"/><path class="b23a2369-83aa-4e0a-927e-486487188ad7" d="M326.16 153.51v-15.3l-13.26-7.65-13.26 7.65v15.3l13.26 7.65 13.26-7.65z"/><rect class="a1704f99-7e08-4036-a34c-8c8e6892479b" x="348.9" y="118.86" width="117" height="54" rx="3"/><text class="ae88a2fc-4cd3-4037-90d9-440ddb52ffd2" transform="translate(401.32 150.7)">s<tspan class="f1df9d1d-d467-47e8-a911-d5ae6a1e08c9" x="6.62" y="0">v</tspan><tspan class="acb17813-62e9-4e21-a11c-80f1d52fb545" x="13.61" y="0">c</tspan><tspan class="bbf0ceb9-fa6f-47f6-ab5d-6895211d220f" x="21.25" y="0">-</tspan><tspan x="27.15" y="0">W v2</tspan></text><circle class="f4a5240f-8f93-48aa-b8ee-453e63c7f5e9" cx="375.9" cy="145.86" r="18"/><path class="b4b5c9de-9baa-4b1e-8753-3c413c6f8cad" d="M369.51 139.34h12.79v12.79h-12.79z"/><path class="f88662de-4890-43d8-8e84-b742977372e7" d="M371.87 139.34v-3.07M375.9 139.34v-3.07M379.93 139.34v-3.07M371.87 155.45v-3.08M375.9 155.45v-3.08M379.93 155.45v-3.08M369.39 149.88h-3.08M369.39 145.86h-3.08M369.39 141.83h-3.08M385.49 149.88h-3.08M385.49 145.86h-3.08M385.49 141.83h-3.08"/><rect class="a1704f99-7e08-4036-a34c-8c8e6892479b" x="373.06" y="142.9" width="5.68" height="5.68" rx="2"/><rect class="a1704f99-7e08-4036-a34c-8c8e6892479b" x="285.9" y="181.86" width="54" height="54" rx="3"/><path class="b23a2369-83aa-4e0a-927e-486487188ad7" d="M326.16 216.51v-15.3l-13.26-7.65-13.26 7.65v15.3l13.26 7.65 13.26-7.65z"/><rect class="a1704f99-7e08-4036-a34c-8c8e6892479b" x="348.9" y="181.86" width="117" height="54" rx="3"/><text class="ae88a2fc-4cd3-4037-90d9-440ddb52ffd2" transform="translate(401.25 213.7)">s<tspan class="f1df9d1d-d467-47e8-a911-d5ae6a1e08c9" x="6.62" y="0">v</tspan><tspan class="acb17813-62e9-4e21-a11c-80f1d52fb545" x="13.61" y="0">c</tspan><tspan class="bbf0ceb9-fa6f-47f6-ab5d-6895211d220f" x="21.25" y="0">-</tspan><tspan x="27.15" y="0">W v3</tspan></text><circle class="f4a5240f-8f93-48aa-b8ee-453e63c7f5e9" cx="375.9" cy="208.86" r="18"/><path class="b4b5c9de-9baa-4b1e-8753-3c413c6f8cad" d="M369.51 202.34h12.79v12.79h-12.79z"/><path class="f88662de-4890-43d8-8e84-b742977372e7" d="M371.87 202.34v-3.07M375.9 202.34v-3.07M379.93 202.34v-3.07M371.87 218.45v-3.08M375.9 218.45v-3.08M379.93 218.45v-3.08M369.39 212.88h-3.08M369.39 208.86h-3.08M369.39 204.83h-3.08M385.49 212.88h-3.08M385.49 208.86h-3.08M385.49 204.83h-3.08"/><rect class="a1704f99-7e08-4036-a34c-8c8e6892479b" x="373.06" y="205.9" width="5.68" height="5.68" rx="2"/><path class="badbbd8a-5869-4aa5-b30c-07c50a7eabb8" d="M31 83h3"/><path stroke-dasharray="6.07 12.14" stroke-linecap="round" stroke="#486baf" stroke-width="4" stroke-linejoin="round" fill="none" d="M46.14 83h230.69"/><path class="badbbd8a-5869-4aa5-b30c-07c50a7eabb8" d="M282.9 83h3M204.9 146h3"/><path class="b86808bd-1b40-4d71-a6fa-e4f38204f6c6" d="M218.61 146h58.93"/><path class="badbbd8a-5869-4aa5-b30c-07c50a7eabb8" d="M282.9 146h3M285.9 209h-3"/><path class="b86808bd-1b40-4d71-a6fa-e4f38204f6c6" d="M272.19 209h-58.93"/><path class="badbbd8a-5869-4aa5-b30c-07c50a7eabb8" d="M207.9 209h-3v-3"/><path class="fc13b10c-4ca8-4433-8935-ef07f914462f" d="M204.9 194V92"/><path class="badbbd8a-5869-4aa5-b30c-07c50a7eabb8" d="M204.9 86v-3"/></g></svg>
